;FLAVOR:Marlin
;TIME:5177
;Filament used: 1.94172m
;Layer height: 0.16
;MINX:97.2
;MINY:212.074
;MINZ:0.16
;MAXX:197.665
;MAXY:291.251
;MAXZ:2.08
;Generated with Cura_SteamEngine 4.13.0
M140 S50
M105
M190 S50
M104 S210
M105
M109 S210
M82 ;absolute extrusion mode
; Start

M201 X500 Y500 Z100 E500                ; Setup machine max acceleration
M203 X500 Y500 Z10 E50                  ; Setup machine max feedrate
M204 P500 R1000 T500                    ; Setup Print/Retract/Travel acceleration
M205 X8 Y8 Z0.40 E5                     ; Setup Jerk
M220 S100                               ; Reset Feedrate
M221 S100                               ; Reset Flowrate

G28                                     ; Home

G92 E0                                  ; Reset Extruder

G1 Z0.96 F2500                          ; Move Z Axis up
G1 X5 Y5 Z0.24 F5000                    ; Move to start position
G1 X5 Y295 Z0.24 F2500 E15              ; Draw the first line
G1 X5.2 Y295 Z0.24 F5000                ; Move to side a little
G1 X5.2 Y5 Z0.24 F2500 E30              ; Draw the second line

G92 E0                                  ; Reset Extruder

G1 Z2.0 F3000                           ; Move Z Axis up

G1 X10 Y10 Z0.18 F5000                  ; Move over and dab blob before print
G1 X15 Y15 Z0.12 F5000                  ; Move over and dab blob before print
G92 E0
G92 E0
G1 F1800 E-3
;LAYER_COUNT:13
;LAYER:0
M107
;MESH:adapter-molle-35.stl
G0 F6000 X118.389 Y264.449 Z0.16
;TYPE:WALL-INNER
G1 F1800 E0
G1 F1200 X118.628 Y264.149 E0.01031
G1 X133.365 Y243.102 E0.7008
G1 X133.533 Y242.832 E0.70935
G1 X133.713 Y242.456 E0.72055
G1 X133.827 Y242.13 E0.72983
G1 X133.908 Y241.792 E0.73917
G1 X133.965 Y241.32 E0.75195
G1 X133.963 Y240.969 E0.76138
G1 X133.928 Y240.632 E0.77049
G1 X133.856 Y240.301 E0.77959
G1 X133.757 Y239.981 E0.78859
G1 X133.622 Y239.666 E0.7978
G1 X133.459 Y239.368 E0.80693
G1 X133.268 Y239.09 E0.81599
G1 X133.049 Y238.829 E0.82515
G1 X132.804 Y238.593 E0.83429
G1 X132.541 Y238.383 E0.84334
G1 X132.255 Y238.198 E0.85249
G1 X131.95 Y238.043 E0.86168
G1 X131.636 Y237.919 E0.87076
G1 X131.31 Y237.829 E0.87985
G1 X130.971 Y237.767 E0.88911
G1 X130.576 Y237.743 E0.89974
G1 X113.906 Y237.745 E1.34774
G1 X113.434 Y237.789 E1.36047
G1 X113.096 Y237.864 E1.36978
G1 X112.774 Y237.969 E1.37888
G1 X112.469 Y238.105 E1.38786
G1 X112.177 Y238.268 E1.39684
G1 X111.9 Y238.462 E1.40593
G1 X111.647 Y238.679 E1.41489
G1 X111.416 Y238.921 E1.42388
G1 X111.207 Y239.187 E1.43297
G1 X111.027 Y239.473 E1.44205
G1 X110.875 Y239.77 E1.45102
G1 X110.754 Y240.083 E1.46004
G1 X110.664 Y240.406 E1.46905
G1 X110.604 Y240.743 E1.47825
G1 X110.58 Y241.134 E1.48877
G1 X110.582 Y262.257 E2.05644
G1 X110.626 Y262.729 E2.06918
G1 X110.702 Y263.068 E2.07851
G1 X110.806 Y263.387 E2.08753
G1 X110.942 Y263.696 E2.0966
G1 X111.106 Y263.985 E2.10553
G1 X111.3 Y264.264 E2.11467
G1 X111.518 Y264.515 E2.1236
G1 X111.76 Y264.748 E2.13263
G1 X112.022 Y264.955 E2.1416
G1 X112.309 Y265.136 E2.15072
G1 X112.615 Y265.29 E2.15993
G1 X113.009 Y265.437 E2.17123
G1 X113.408 Y265.529 E2.18223
G1 X113.666 Y265.568 E2.18924
G1 X113.975 Y265.583 E2.19756
G1 X115.934 Y265.581 E2.2502
G1 X116.392 Y265.539 E2.26256
G1 X116.727 Y265.468 E2.27177
G1 X117.041 Y265.366 E2.28064
G1 X117.344 Y265.237 E2.28949
G1 X117.632 Y265.078 E2.29833
G1 X117.902 Y264.893 E2.30713
G1 X118.153 Y264.685 E2.31589
G1 X118.389 Y264.449 E2.32486
G0 F6000 X118.09 Y264.182
G1 F1200 X118.308 Y263.909 E2.33425
G1 X133.031 Y242.881 E3.0241
G1 X133.182 Y242.639 E3.03177
G1 X133.343 Y242.303 E3.04178
G1 X133.443 Y242.017 E3.04992
G1 X133.514 Y241.721 E3.0581
G1 X133.565 Y241.297 E3.06958
G1 X133.563 Y240.991 E3.07781
G1 X133.532 Y240.695 E3.0858
G1 X133.469 Y240.403 E3.09383
G1 X133.381 Y240.119 E3.10182
G1 X133.262 Y239.841 E3.10995
G1 X133.118 Y239.578 E3.11801
G1 X132.949 Y239.332 E3.12603
G1 X132.756 Y239.102 E3.1341
G1 X132.54 Y238.894 E3.14215
G1 X132.307 Y238.708 E3.15017
G1 X132.055 Y238.545 E3.15823
G1 X131.786 Y238.408 E3.16635
G1 X131.509 Y238.299 E3.17435
G1 X131.221 Y238.219 E3.18238
G1 X130.923 Y238.165 E3.19052
G1 X130.564 Y238.143 E3.20018
G1 X113.925 Y238.145 E3.64734
G1 X113.496 Y238.185 E3.65892
G1 X113.202 Y238.25 E3.66701
G1 X112.918 Y238.343 E3.67504
G1 X112.648 Y238.463 E3.68298
G1 X112.39 Y238.607 E3.69093
G1 X112.146 Y238.778 E3.69893
G1 X111.923 Y238.97 E3.70684
G1 X111.718 Y239.184 E3.7148
G1 X111.534 Y239.418 E3.7228
G1 X111.375 Y239.671 E3.73083
G1 X111.241 Y239.934 E3.73877
G1 X111.134 Y240.21 E3.74672
G1 X111.054 Y240.495 E3.75468
G1 X111.002 Y240.79 E3.76273
G1 X110.98 Y241.146 E3.77231
G1 X110.982 Y262.238 E4.33914
G1 X111.022 Y262.667 E4.35072
G1 X111.088 Y262.962 E4.35885
G1 X111.18 Y263.244 E4.36682
G1 X111.3 Y263.516 E4.37481
G1 X111.445 Y263.772 E4.38271
G1 X111.616 Y264.018 E4.39077
G1 X111.808 Y264.239 E4.39863
G1 X112.023 Y264.446 E4.40665
G1 X112.254 Y264.628 E4.41456
G1 X112.506 Y264.788 E4.42258
G1 X112.775 Y264.923 E4.43067
G1 X113.124 Y265.053 E4.44068
G1 X113.483 Y265.136 E4.45058
G1 X113.705 Y265.169 E4.45661
G1 X113.985 Y265.183 E4.46414
G1 X115.916 Y265.181 E4.51604
G1 X116.332 Y265.143 E4.52726
G1 X116.623 Y265.081 E4.53526
G1 X116.901 Y264.991 E4.54311
G1 X117.168 Y264.877 E4.55092
G1 X117.422 Y264.737 E4.55871
G1 X117.661 Y264.573 E4.5665
G1 X117.883 Y264.389 E4.57425
G1 X118.09 Y264.182 E4.58212
G0 F6000 X117.791 Y263.915
;TYPE:WALL-OUTER
G1 F1200 X117.987 Y263.669 E4.59057
G1 X132.697 Y242.66 E5.27981
G1 X132.831 Y242.446 E5.28659
G1 X132.973 Y242.15 E5.29542
G1 X133.059 Y241.904 E5.30242
G1 X133.12 Y241.65 E5.30944
G1 X133.165 Y241.275 E5.31959
G1 X133.163 Y241.014 E5.3266
G1 X133.136 Y240.758 E5.33352
G1 X133.082 Y240.504 E5.3405
G1 X133.005 Y240.257 E5.34745
G1 X132.902 Y240.016 E5.3545
G1 X132.777 Y239.788 E5.36148
G1 X132.63 Y239.574 E5.36846
G1 X132.463 Y239.375 E5.37544
G1 X132.276 Y239.195 E5.38242
G1 X132.073 Y239.033 E5.3894
G1 X131.855 Y238.892 E5.39638
G1 X131.622 Y238.773 E5.40341
G1 X131.382 Y238.679 E5.41033
G1 X131.132 Y238.609 E5.41731
G1 X130.875 Y238.563 E5.42433
G1 X130.552 Y238.543 E5.43302
G1 X113.944 Y238.545 E5.87935
G1 X113.558 Y238.581 E5.88977
G1 X113.308 Y238.636 E5.89665
G1 X113.062 Y238.717 E5.90361
G1 X112.827 Y238.821 E5.91051
G1 X112.603 Y238.946 E5.91741
G1 X112.392 Y239.094 E5.92433
G1 X112.199 Y239.261 E5.93119
G1 X112.02 Y239.447 E5.93813
G1 X111.861 Y239.649 E5.94504
G1 X111.723 Y239.868 E5.952
G1 X111.607 Y240.097 E5.95889
G1 X111.514 Y240.336 E5.96579
G1 X111.445 Y240.584 E5.9727
G1 X111.4 Y240.838 E5.97964
G1 X111.38 Y241.158 E5.98825
G1 X111.382 Y262.219 E6.55425
G1 X111.418 Y262.605 E6.56467
G1 X111.474 Y262.856 E6.57158
G1 X111.554 Y263.101 E6.57851
G1 X111.658 Y263.336 E6.58541
G1 X111.784 Y263.559 E6.5923
G1 X111.932 Y263.772 E6.59927
G1 X112.098 Y263.963 E6.60607
G1 X112.286 Y264.144 E6.61308
G1 X112.486 Y264.301 E6.61991
G1 X112.704 Y264.44 E6.62686
G1 X112.935 Y264.556 E6.63381
G1 X113.239 Y264.669 E6.64252
G1 X113.557 Y264.743 E6.6513
G1 X113.744 Y264.77 E6.65638
G1 X113.995 Y264.783 E6.66313
G1 X115.898 Y264.781 E6.71427
G1 X116.272 Y264.747 E6.72436
G1 X116.519 Y264.694 E6.73115
G1 X116.761 Y264.616 E6.73799
G1 X116.992 Y264.517 E6.74474
G1 X117.212 Y264.396 E6.75149
G1 X117.42 Y264.254 E6.75826
G1 X117.613 Y264.093 E6.76501
G1 X117.791 Y263.915 E6.77178
G0 F6000 X118.119 Y264.208
G1 F1800 E3.77178
G0 F6000 X132.598 Y244.563
G0 X131.063 Y243.489
G0 X135.696 Y246.301
G0 X122.322 Y265.543
G0 X142.43 Y279.557
G0 X156.828 Y259.13
G0 X161.699 Y262.088
G0 X159.842 Y262.196
G0 X162.364 Y265.406
;TYPE:WALL-INNER
G1 F1800 E6.77178
G1 F1200 X162.69 Y265.496 E6.78086
G1 X163.028 Y265.558 E6.7901
G1 X163.422 Y265.583 E6.80071
G1 X180.094 Y265.581 E7.24876
G1 X180.565 Y265.537 E7.26147
G1 X180.903 Y265.461 E7.27078
G1 X181.222 Y265.356 E7.2798
G1 X181.531 Y265.223 E7.28885
G1 X181.825 Y265.056 E7.29793
G1 X182.1 Y264.863 E7.30696
G1 X182.353 Y264.646 E7.31592
G1 X182.584 Y264.404 E7.32491
G1 X182.793 Y264.138 E7.334
G1 X182.973 Y263.852 E7.34308
G1 X183.125 Y263.555 E7.35205
G1 X183.246 Y263.242 E7.36107
G1 X183.336 Y262.919 E7.37008
G1 X183.396 Y262.582 E7.37928
G1 X183.42 Y262.193 E7.38975
G1 X183.418 Y241.069 E7.95744
G1 X183.374 Y240.596 E7.97021
G1 X183.298 Y240.257 E7.97954
G1 X183.194 Y239.938 E7.98856
G1 X183.058 Y239.629 E7.99763
G1 X182.894 Y239.34 E8.00656
G1 X182.7 Y239.061 E8.0157
G1 X182.482 Y238.81 E8.02463
G1 X182.241 Y238.578 E8.03362
G1 X181.977 Y238.37 E8.04265
G1 X181.69 Y238.187 E8.0518
G1 X181.386 Y238.036 E8.06092
G1 X180.993 Y237.888 E8.07221
G1 X180.584 Y237.794 E8.08349
G1 X180.251 Y237.752 E8.09251
G1 X180.021 Y237.743 E8.09869
G1 X178.067 Y237.745 E8.1512
G1 X177.608 Y237.786 E8.16359
G1 X177.271 Y237.858 E8.17285
G1 X176.959 Y237.959 E8.18166
G1 X176.656 Y238.088 E8.19051
G1 X176.368 Y238.247 E8.19935
G1 X176.098 Y238.432 E8.20815
G1 X175.847 Y238.64 E8.21691
G1 X175.611 Y238.876 E8.22588
G1 X175.372 Y239.176 E8.23619
G1 X160.6 Y260.279 E8.92845
G1 X160.362 Y260.695 E8.94133
G1 X160.227 Y261.023 E8.95086
G1 X160.129 Y261.352 E8.96009
G1 X160.054 Y261.77 E8.9715
G1 X160.032 Y262.195 E8.98294
G1 X160.054 Y262.546 E8.99239
G1 X160.14 Y263.012 E9.00512
G1 X160.243 Y263.347 E9.01454
G1 X160.378 Y263.66 E9.0237
G1 X160.541 Y263.957 E9.03281
G1 X160.732 Y264.237 E9.04192
G1 X160.953 Y264.498 E9.05111
G1 X161.196 Y264.732 E9.06017
G1 X161.459 Y264.942 E9.06922
G1 X161.745 Y265.127 E9.07837
G1 X162.05 Y265.282 E9.08757
G1 X162.364 Y265.406 E9.09664
G0 F6000 X162.491 Y265.026
G1 F1200 X162.779 Y265.106 E9.10467
G1 X163.077 Y265.16 E9.11281
G1 X163.435 Y265.183 E9.12245
G1 X180.075 Y265.181 E9.56964
G1 X180.502 Y265.141 E9.58116
G1 X180.797 Y265.075 E9.58929
G1 X181.08 Y264.982 E9.59729
G1 X181.353 Y264.864 E9.60529
G1 X181.611 Y264.718 E9.61325
G1 X181.854 Y264.547 E9.62124
G1 X182.077 Y264.355 E9.62915
G1 X182.282 Y264.141 E9.63711
G1 X182.466 Y263.907 E9.64511
G1 X182.625 Y263.654 E9.65314
G1 X182.759 Y263.391 E9.66107
G1 X182.866 Y263.115 E9.66903
G1 X182.946 Y262.83 E9.67698
G1 X182.998 Y262.535 E9.68503
G1 X183.02 Y262.181 E9.69457
G1 X183.018 Y241.088 E10.26142
G1 X182.978 Y240.658 E10.27303
G1 X182.912 Y240.363 E10.28115
G1 X182.82 Y240.081 E10.28912
G1 X182.7 Y239.809 E10.29711
G1 X182.555 Y239.553 E10.30502
G1 X182.384 Y239.307 E10.31307
G1 X182.192 Y239.086 E10.32094
G1 X181.978 Y238.88 E10.32892
G1 X181.745 Y238.697 E10.33688
G1 X181.493 Y238.536 E10.34492
G1 X181.226 Y238.403 E10.35294
G1 X180.877 Y238.272 E10.36296
G1 X180.514 Y238.188 E10.37297
G1 X180.218 Y238.151 E10.38098
G1 X180.013 Y238.143 E10.3865
G1 X178.085 Y238.145 E10.43831
G1 X177.668 Y238.182 E10.44956
G1 X177.375 Y238.245 E10.45762
G1 X177.099 Y238.334 E10.46541
G1 X176.832 Y238.448 E10.47321
G1 X176.578 Y238.588 E10.48101
G1 X176.339 Y238.752 E10.4888
G1 X176.117 Y238.936 E10.49654
G1 X175.91 Y239.143 E10.50441
G1 X175.692 Y239.416 E10.5138
G1 X160.938 Y260.494 E11.20524
G1 X160.722 Y260.871 E11.21691
G1 X160.605 Y261.156 E11.22519
G1 X160.519 Y261.445 E11.2333
G1 X160.452 Y261.816 E11.24343
G1 X160.433 Y262.193 E11.25357
G1 X160.452 Y262.497 E11.26176
G1 X160.529 Y262.917 E11.27323
G1 X160.619 Y263.208 E11.28142
G1 X160.738 Y263.484 E11.2895
G1 X160.882 Y263.747 E11.29755
G1 X161.051 Y263.994 E11.3056
G1 X161.245 Y264.224 E11.31368
G1 X161.46 Y264.431 E11.3217
G1 X161.693 Y264.617 E11.32972
G1 X161.945 Y264.78 E11.33778
G1 X162.214 Y264.917 E11.34589
G1 X162.491 Y265.026 E11.35389
G0 F6000 X162.618 Y264.646
;TYPE:WALL-OUTER
G1 F1200 X162.868 Y264.716 E11.36087
G1 X163.125 Y264.762 E11.36789
G1 X163.448 Y264.783 E11.37659
G1 X180.056 Y264.781 E11.82291
G1 X180.44 Y264.745 E11.83328
G1 X180.691 Y264.689 E11.84019
G1 X180.937 Y264.608 E11.84715
G1 X181.174 Y264.505 E11.85409
G1 X181.397 Y264.379 E11.86098
G1 X181.608 Y264.231 E11.8679
G1 X181.801 Y264.064 E11.87476
G1 X181.98 Y263.878 E11.8817
G1 X182.139 Y263.676 E11.88861
G1 X182.277 Y263.457 E11.89557
G1 X182.393 Y263.228 E11.90246
G1 X182.486 Y262.989 E11.90936
G1 X182.555 Y262.741 E11.91627
G1 X182.6 Y262.487 E11.92321
G1 X182.62 Y262.168 E11.9318
G1 X182.618 Y241.107 E12.49779
G1 X182.582 Y240.72 E12.50824
G1 X182.526 Y240.469 E12.51515
G1 X182.446 Y240.224 E12.52208
G1 X182.342 Y239.989 E12.52898
G1 X182.216 Y239.766 E12.53587
G1 X182.068 Y239.553 E12.54284
G1 X181.902 Y239.362 E12.54964
G1 X181.715 Y239.182 E12.55661
G1 X181.513 Y239.024 E12.5635
G1 X181.295 Y238.884 E12.57047
G1 X181.066 Y238.77 E12.57734
G1 X180.761 Y238.656 E12.58609
G1 X180.444 Y238.582 E12.59484
G1 X180.186 Y238.55 E12.60183
G1 X180.005 Y238.543 E12.60669
G1 X178.103 Y238.545 E12.65781
G1 X177.728 Y238.578 E12.66793
G1 X177.479 Y238.632 E12.67477
G1 X177.239 Y238.709 E12.68155
G1 X177.008 Y238.808 E12.6883
G1 X176.788 Y238.929 E12.69505
G1 X176.58 Y239.071 E12.70182
G1 X176.387 Y239.232 E12.70857
G1 X176.209 Y239.41 E12.71534
G1 X176.013 Y239.656 E12.72379
G1 X161.276 Y260.708 E13.41439
G1 X161.082 Y261.047 E13.42489
G1 X160.983 Y261.289 E13.43191
G1 X160.909 Y261.538 E13.43889
G1 X160.85 Y261.862 E13.44775
G1 X160.834 Y262.19 E13.45657
G1 X160.85 Y262.449 E13.46354
G1 X160.918 Y262.821 E13.47371
G1 X160.995 Y263.069 E13.48069
G1 X161.098 Y263.309 E13.4877
G1 X161.223 Y263.537 E13.49469
G1 X161.37 Y263.752 E13.50169
G1 X161.537 Y263.95 E13.50865
G1 X161.724 Y264.13 E13.51563
G1 X161.927 Y264.292 E13.52261
G1 X162.145 Y264.433 E13.52958
G1 X162.378 Y264.552 E13.53662
G1 X162.618 Y264.646 E13.54354
G0 F6000 X162.479 Y265.063
G1 F1800 E10.54354
G0 F6000 X161.347 Y265.097
G0 X162.304 Y263.488
G0 X155.448 Y260.966
G0 X156.983 Y262.04
G0 X142.441 Y281.665
;TYPE:WALL-INNER
G1 F1800 E13.54354
G1 F1200 X142.735 Y281.505 E13.55254
G1 X143.015 Y281.32 E13.56156
G1 X143.273 Y281.107 E13.57055
G1 X143.514 Y280.866 E13.57971
G1 X143.759 Y280.559 E13.59026
G1 X173.045 Y238.737 E14.96236
G1 X173.212 Y238.468 E14.97087
G1 X173.391 Y238.096 E14.98196
G1 X173.504 Y237.777 E14.99106
G1 X173.584 Y237.448 E15.00016
G1 X173.632 Y237.119 E15.00909
G1 X173.648 Y236.777 E15.01829
G1 X173.613 Y236.302 E15.03109
G1 X173.544 Y235.962 E15.04042
G1 X173.448 Y235.644 E15.04934
G1 X173.319 Y235.33 E15.05847
G1 X173.159 Y235.037 E15.06744
G1 X172.975 Y234.759 E15.0764
G1 X172.76 Y234.496 E15.08553
G1 X172.52 Y234.256 E15.09465
G1 X172.211 Y234.011 E15.10525
G1 X154.961 Y221.933 E15.67116
G1 X154.63 Y221.732 E15.68157
G1 X154.321 Y221.586 E15.69076
G1 X154.004 Y221.475 E15.69978
G1 X153.677 Y221.395 E15.70883
G1 X153.347 Y221.347 E15.71779
G1 X153.005 Y221.331 E15.72699
G1 X152.529 Y221.366 E15.73982
G1 X152.191 Y221.435 E15.74909
G1 X151.872 Y221.531 E15.75804
G1 X151.559 Y221.66 E15.76714
G1 X151.265 Y221.82 E15.77613
G1 X150.985 Y222.005 E15.78515
G1 X150.727 Y222.218 E15.79415
G1 X150.486 Y222.459 E15.8033
G1 X150.241 Y222.766 E15.81386
G1 X120.92 Y264.645 E17.18775
G1 X120.684 Y265.057 E17.20051
G1 X120.551 Y265.379 E17.20987
G1 X120.453 Y265.7 E17.21889
G1 X120.389 Y266.03 E17.22793
G1 X120.356 Y266.361 E17.23687
G1 X120.356 Y266.695 E17.24584
G1 X120.389 Y267.033 E17.25497
G1 X120.456 Y267.363 E17.26402
G1 X120.552 Y267.681 E17.27295
G1 X120.681 Y267.995 E17.28207
G1 X120.841 Y268.29 E17.29109
G1 X121.025 Y268.566 E17.3
G1 X121.24 Y268.829 E17.30913
G1 X121.48 Y269.069 E17.31825
G1 X121.789 Y269.314 E17.32885
G1 X139.038 Y281.392 E17.89475
G1 X139.37 Y281.594 E17.90519
G1 X139.681 Y281.739 E17.91441
G1 X139.994 Y281.848 E17.92332
G1 X140.33 Y281.933 E17.93263
G1 X140.8 Y281.99 E17.94536
G1 X141.141 Y281.99 E17.95452
G1 X141.48 Y281.957 E17.96367
G1 X141.806 Y281.891 E17.97261
G1 X142.126 Y281.794 E17.9816
G1 X142.441 Y281.665 E17.99075
G0 F6000 X142.269 Y281.303
G1 F1200 X142.529 Y281.162 E17.9987
G1 X142.777 Y280.998 E18.00669
G1 X143.003 Y280.811 E18.01457
G1 X143.215 Y280.599 E18.02263
G1 X143.439 Y280.319 E18.03226
G1 X172.711 Y238.516 E19.40373
G1 X172.861 Y238.275 E19.41135
G1 X173.021 Y237.942 E19.42128
G1 X173.12 Y237.662 E19.42926
G1 X173.191 Y237.372 E19.43729
G1 X173.233 Y237.081 E19.44519
G1 X173.247 Y236.782 E19.45323
G1 X173.216 Y236.356 E19.46471
G1 X173.156 Y236.06 E19.47283
