;FLAVOR:Marlin
;TIME:2630
;Filament used: 1.65378m
;Layer height: 0.16
;MINX:134.201
;MINY:138.222
;MINZ:0.16
;MAXX:159.799
;MAXY:163.778
;MAXZ:28
;Generated with Cura_SteamEngine 4.13.0
M140 S50
M105
M190 S50
M104 S210
M105
M109 S210
M82 ;absolute extrusion mode
; Start

M201 X500 Y500 Z100 E500                ; Setup machine max acceleration
M203 X500 Y500 Z10 E50                  ; Setup machine max feedrate
M204 P500 R1000 T500                    ; Setup Print/Retract/Travel acceleration
M205 X8 Y8 Z0.40 E5                     ; Setup Jerk
M220 S100                               ; Reset Feedrate
M221 S100                               ; Reset Flowrate

G28                                     ; Home

G92 E0                                  ; Reset Extruder

G1 Z0.96 F2500                          ; Move Z Axis up
G1 X5 Y5 Z0.24 F5000                    ; Move to start position
G1 X5 Y295 Z0.24 F2500 E15              ; Draw the first line
G1 X5.2 Y295 Z0.24 F5000                ; Move to side a little
G1 X5.2 Y5 Z0.24 F2500 E30              ; Draw the second line

G92 E0                                  ; Reset Extruder

G1 Z2.0 F3000                           ; Move Z Axis up

G1 X10 Y10 Z0.18 F5000                  ; Move over and dab blob before print
G1 X15 Y15 Z0.12 F5000                  ; Move over and dab blob before print
G92 E0
G92 E0
G1 F1800 E-3
;LAYER_COUNT:175
;LAYER:0
M107
;MESH:marshmallow-ammo.stl
G0 F6000 X146.329 Y161.056 Z0.16
;TYPE:WALL-INNER
G1 F1800 E0
G1 F1200 X144.938 Y160.865 E0.03773
G1 X143.706 Y160.519 E0.07212
G1 X143.588 Y160.48 E0.07546
G1 X142.394 Y159.964 E0.11042
G1 X142.329 Y159.928 E0.11242
G1 X141.21 Y159.249 E0.14759
G1 X140.113 Y158.36 E0.18554
G1 X139.219 Y157.399 E0.22081
G1 X139.162 Y157.334 E0.22313
G1 X138.411 Y156.271 E0.25811
G1 X138.361 Y156.187 E0.26074
G1 X137.77 Y155.05 E0.29518
G1 X137.296 Y153.72 E0.33312
G1 X137.028 Y152.431 E0.3685
G1 X137.014 Y152.35 E0.37071
G1 X136.923 Y151.049 E0.40576
G1 X136.924 Y150.953 E0.40834
G1 X137.01 Y149.668 E0.44295
G1 X137.297 Y148.276 E0.48115
G1 X137.73 Y147.06 E0.51584
G1 X137.766 Y146.964 E0.51859
G1 X138.359 Y145.815 E0.55334
G1 X138.414 Y145.725 E0.55617
G1 X139.159 Y144.668 E0.59093
G1 X139.218 Y144.602 E0.59331
G1 X140.113 Y143.641 E0.6286
G1 X141.216 Y142.748 E0.66674
G1 X142.301 Y142.085 E0.70091
G1 X142.399 Y142.034 E0.70388
G1 X143.593 Y141.515 E0.73886
G1 X143.667 Y141.492 E0.74095
G1 X144.938 Y141.135 E0.77643
G1 X146.328 Y140.945 E0.81413
G1 X147.633 Y140.944 E0.8492
G1 X147.728 Y140.949 E0.85176
G1 X149 Y141.122 E0.88625
G1 X149.109 Y141.148 E0.88927
G1 X150.353 Y141.495 E0.92397
G1 X151.643 Y142.055 E0.96177
G1 X152.764 Y142.737 E0.99703
G1 X152.85 Y142.795 E0.99982
G1 X153.83 Y143.591 E1.03375
G1 X153.922 Y143.679 E1.03717
G1 X154.8 Y144.617 E1.0717
G1 X155.613 Y145.765 E1.1095
G1 X156.206 Y146.91 E1.14415
G1 X156.257 Y147.018 E1.14736
G1 X156.689 Y148.229 E1.18192
G1 X156.709 Y148.303 E1.18398
G1 X156.979 Y149.6 E1.21958
G1 X156.988 Y149.704 E1.22239
G1 X157.078 Y151 E1.2573
G1 X156.991 Y152.284 E1.29188
G1 X156.98 Y152.39 E1.29475
G1 X156.717 Y153.665 E1.32973
G1 X156.688 Y153.768 E1.33261
G1 X156.257 Y154.983 E1.36726
G1 X156.213 Y155.073 E1.36995
G1 X155.615 Y156.229 E1.40493
G1 X154.86 Y157.299 E1.44012
G1 X154.798 Y157.384 E1.44295
G1 X153.932 Y158.311 E1.47704
G1 X153.844 Y158.395 E1.48031
G1 X152.847 Y159.208 E1.51488
G1 X152.749 Y159.274 E1.51806
G1 X151.655 Y159.941 E1.55249
G1 X150.354 Y160.503 E1.59058
G1 X149.108 Y160.852 E1.62535
G1 X149.01 Y160.875 E1.62805
G1 X147.747 Y161.05 E1.66232
G1 X147.607 Y161.055 E1.66609
G1 X146.329 Y161.056 E1.70043
G0 F6000 X146.304 Y161.456
G1 F1200 X144.855 Y161.257 E1.73974
G1 X143.579 Y160.899 E1.77535
G1 X143.449 Y160.856 E1.77903
G1 X142.222 Y160.325 E1.81496
G1 X142.121 Y160.27 E1.81805
G1 X140.979 Y159.577 E1.85395
G1 X139.838 Y158.652 E1.89343
G1 X138.926 Y157.672 E1.9294
G1 X138.847 Y157.582 E1.93262
G1 X138.084 Y156.502 E1.96816
G1 X138.01 Y156.378 E1.97204
G1 X137.402 Y155.208 E2.00747
G1 X136.909 Y153.827 E2.04688
G1 X136.636 Y152.512 E2.08297
G1 X136.616 Y152.396 E2.08614
G1 X136.523 Y151.061 E2.1221
G1 X136.524 Y150.94 E2.12535
G1 X136.613 Y149.613 E2.16109
G1 X136.637 Y149.489 E2.16449
G1 X136.91 Y148.169 E2.20071
G1 X137.353 Y146.926 E2.23618
G1 X137.401 Y146.801 E2.23978
G1 X138.011 Y145.619 E2.27552
G1 X138.083 Y145.501 E2.27924
G1 X138.844 Y144.421 E2.31474
G1 X138.925 Y144.329 E2.31804
G1 X139.838 Y143.348 E2.35405
G1 X140.983 Y142.422 E2.39362
G1 X142.109 Y141.734 E2.42909
G1 X142.222 Y141.675 E2.43251
G1 X143.448 Y141.142 E2.46844
G1 X143.559 Y141.107 E2.47157
G1 X144.855 Y140.743 E2.50774
G1 X146.303 Y140.545 E2.54702
G1 X147.635 Y140.544 E2.58282
G1 X147.767 Y140.551 E2.58637
G1 X149.074 Y140.729 E2.62182
G1 X149.205 Y140.76 E2.62544
G1 X150.489 Y141.118 E2.66126
G1 X151.83 Y141.7 E2.70054
G1 X152.972 Y142.395 E2.73647
G1 X153.084 Y142.47 E2.74009
G1 X154.102 Y143.297 E2.77534
G1 X154.199 Y143.39 E2.77895
G1 X155.109 Y144.363 E2.81475
G1 X155.956 Y145.558 E2.85412
G1 X156.567 Y146.738 E2.88983
G1 X156.628 Y146.866 E2.89364
G1 X157.07 Y148.106 E2.92902
G1 X157.101 Y148.221 E2.93222
G1 X157.376 Y149.542 E2.96848
G1 X157.387 Y149.67 E2.97193
G1 X157.479 Y151 E3.00776
G1 X157.389 Y152.324 E3.04342
G1 X157.376 Y152.453 E3.04691
G1 X157.107 Y153.758 E3.08272
G1 X157.07 Y153.889 E3.08637
G1 X156.629 Y155.132 E3.12182
G1 X156.568 Y155.257 E3.12556
G1 X155.956 Y156.44 E3.16135
G1 X155.187 Y157.53 E3.1972
G1 X155.107 Y157.639 E3.20083
G1 X154.217 Y158.592 E3.23588
G1 X154.103 Y158.7 E3.2401
G1 X153.082 Y159.533 E3.27551
G1 X152.97 Y159.607 E3.27912
G1 X151.836 Y160.299 E3.31482
G1 X150.489 Y160.881 E3.35425
G1 X149.203 Y161.241 E3.39014
G1 X149.084 Y161.268 E3.39342
G1 X147.777 Y161.449 E3.42888
G1 X147.623 Y161.455 E3.43302
G1 X146.304 Y161.456 E3.46847
G0 F6000 X146.279 Y161.856
;TYPE:WALL-OUTER
G1 F1200 X144.772 Y161.649 E3.50935
G1 X143.452 Y161.279 E3.54619
G1 X143.31 Y161.232 E3.55021
G1 X142.047 Y160.685 E3.5872
G1 X141.917 Y160.615 E3.59117
G1 X140.748 Y159.905 E3.62792
G1 X139.563 Y158.944 E3.66892
G1 X138.633 Y157.945 E3.7056
G1 X138.528 Y157.825 E3.70989
G1 X137.747 Y156.719 E3.74628
G1 X137.666 Y156.583 E3.75053
G1 X137.033 Y155.364 E3.78744
G1 X136.523 Y153.937 E3.82817
G1 X136.244 Y152.593 E3.86506
G1 X136.218 Y152.443 E3.86915
G1 X136.123 Y151.073 E3.90605
G1 X136.124 Y150.927 E3.90998
G1 X136.216 Y149.563 E3.94672
G1 X136.245 Y149.408 E3.95096
G1 X136.523 Y148.062 E3.98789
G1 X136.979 Y146.784 E4.02436
G1 X137.034 Y146.639 E4.02853
G1 X137.665 Y145.418 E4.06546
G1 X137.741 Y145.293 E4.06939
G1 X138.532 Y144.169 E4.10633
G1 X138.632 Y144.056 E4.11039
G1 X139.563 Y143.056 E4.1471
G1 X140.624 Y142.196 E4.18381
G1 X140.75 Y142.096 E4.18813
G1 X141.918 Y141.383 E4.22491
G1 X142.055 Y141.311 E4.22906
G1 X143.299 Y140.77 E4.26552
G1 X143.451 Y140.722 E4.2698
G1 X144.772 Y140.351 E4.30668
G1 X146.278 Y140.145 E4.34753
G1 X147.637 Y140.144 E4.38405
G1 X147.806 Y140.153 E4.3886
G1 X149.148 Y140.336 E4.425
G1 X149.301 Y140.372 E4.42922
G1 X150.625 Y140.741 E4.46616
G1 X152.017 Y141.345 E4.50694
G1 X153.186 Y142.057 E4.54372
G1 X153.315 Y142.143 E4.54789
G1 X154.367 Y142.998 E4.58432
G1 X154.484 Y143.109 E4.58865
G1 X155.419 Y144.109 E4.62545
G1 X156.299 Y145.351 E4.66635
G1 X156.929 Y146.567 E4.70316
G1 X156.997 Y146.711 E4.70744
G1 X157.451 Y147.983 E4.74373
G1 X157.493 Y148.139 E4.74807
G1 X157.773 Y149.484 E4.78499
G1 X157.786 Y149.636 E4.78909
G1 X157.88 Y151 E4.82584
G1 X157.787 Y152.363 E4.86255
G1 X157.772 Y152.517 E4.86671
G1 X157.497 Y153.847 E4.90321
G1 X157.45 Y154.014 E4.90787
G1 X156.998 Y155.288 E4.9442
G1 X156.928 Y155.432 E4.9485
G1 X156.297 Y156.652 E4.98542
G1 X155.513 Y157.76 E5.02189
G1 X155.414 Y157.896 E5.02641
G1 X154.493 Y158.882 E5.06267
G1 X154.37 Y158.999 E5.06724
G1 X153.315 Y159.859 E5.10381
G1 X153.187 Y159.942 E5.10791
G1 X152.017 Y160.656 E5.14475
G1 X150.767 Y161.198 E5.18136
G1 X150.624 Y161.258 E5.18553
G1 X149.302 Y161.629 E5.22243
G1 X149.155 Y161.662 E5.22648
G1 X147.807 Y161.848 E5.26305
G1 X147.64 Y161.855 E5.26754
G1 X146.279 Y161.856 E5.30412
G0 F6000 X146.308 Y161.417
G0 X146.352 Y160.666
;TYPE:SKIN
G1 F1200 X145.023 Y160.483 E5.34017
G1 X143.811 Y160.143 E5.374
G1 X143.725 Y160.115 E5.37643
G1 X142.571 Y159.616 E5.41022
G1 X142.517 Y159.586 E5.41188
G1 X141.437 Y158.93 E5.44584
G1 X140.373 Y158.069 E5.48262
G1 X139.508 Y157.138 E5.51677
G1 X139.467 Y157.091 E5.51845
G1 X138.737 Y156.057 E5.55246
G1 X138.702 Y155.997 E5.55433
G1 X138.128 Y154.892 E5.58779
G1 X137.673 Y153.618 E5.62415
G1 X137.404 Y152.316 E5.65988
G1 X137.313 Y151.022 E5.69474
G1 X137.314 Y150.979 E5.6959
G1 X137.398 Y149.713 E5.72999
G1 X137.674 Y148.38 E5.76658
G1 X138.121 Y147.128 E5.8023
G1 X138.699 Y146.007 E5.8362
G1 X138.747 Y145.929 E5.83866
G1 X139.456 Y144.921 E5.87178
G1 X139.505 Y144.864 E5.8738
G1 X140.373 Y143.932 E5.90803
G1 X141.444 Y143.065 E5.94506
G1 X142.494 Y142.424 E5.97812
G1 X142.564 Y142.387 E5.98024
G1 X143.724 Y141.882 E6.01425
G1 X145.023 Y141.517 E6.05051
G1 X146.351 Y141.335 E6.08653
G1 X147.612 Y141.334 E6.12042
G1 X147.703 Y141.339 E6.12287
G1 X148.919 Y141.504 E6.15585
G1 X149.011 Y141.526 E6.15839
G1 X150.228 Y141.866 E6.19235
G1 X151.461 Y142.401 E6.22847
G1 X152.546 Y143.061 E6.2626
G1 X152.632 Y143.119 E6.26538
G1 X153.561 Y143.874 E6.29755
G1 X153.637 Y143.946 E6.30037
G1 X154.497 Y144.865 E6.33419
G1 X155.277 Y145.966 E6.37045
G1 X155.859 Y147.089 E6.40445
G1 X155.897 Y147.167 E6.40678
G1 X156.317 Y148.345 E6.44039
G1 X156.327 Y148.383 E6.44144
G1 X156.594 Y149.672 E6.47682
G1 X156.686 Y151 E6.51259
G1 X156.601 Y152.257 E6.54645
G1 X156.594 Y152.332 E6.54848
G1 X156.341 Y153.56 E6.58217
G1 X156.313 Y153.66 E6.58496
G1 X155.901 Y154.823 E6.61812
G1 X155.866 Y154.894 E6.62025
G1 X155.275 Y156.035 E6.65478
G1 X154.604 Y156.987 E6.68608
G1 X154.496 Y157.134 E6.69098
G1 X153.657 Y158.034 E6.72405
G1 X153.578 Y158.111 E6.72701
G1 X152.621 Y158.89 E6.76018
G1 X152.534 Y158.949 E6.763
G1 X151.473 Y159.594 E6.79637
G1 X150.228 Y160.133 E6.83283
G1 X149.013 Y160.473 E6.86674
G1 X148.929 Y160.493 E6.86906
G1 X147.72 Y160.66 E6.90186
G1 X147.593 Y160.665 E6.90527
G1 X146.352 Y160.666 E6.93862
G0 F6000 X146.314 Y160.942
G0 X144.972 Y160.698
G0 X143.904 Y160.394
G0 X142.058 Y159.633
G0 X142.286 Y159.257
G1 F1200 X138.725 Y155.696 E7.07396
G0 F6000 X138.335 Y155.898
G0 X137.777 Y154.742
G0 X138.191 Y154.596
G1 F1200 X143.389 Y159.794 E7.27151
G0 F6000 X144.263 Y160.102
G1 F1200 X137.878 Y153.717 E7.51418
G0 F6000 X137.704 Y152.977
G1 F1200 X145.048 Y160.321 E7.7933
G0 F6000 X145.706 Y160.414
G1 F1200 X137.56 Y152.268 E8.10289
G0 F6000 X137.518 Y151.66
G1 F1200 X146.362 Y160.504 E8.43902
G0 F6000 X146.928 Y160.504
G1 F1200 X137.475 Y151.052 E8.79827
G0 F6000 X137.504 Y150.515
G1 F1200 X147.493 Y160.504 E9.17791
G0 F6000 X148.011 Y160.456
G1 F1200 X137.54 Y149.985 E9.57587
G0 F6000 X137.607 Y149.486
G1 F1200 X148.508 Y160.388 E9.99019
G0 F6000 X148.995 Y160.309
G1 F1200 X137.704 Y149.017 E10.41933
G0 F6000 X137.8 Y148.548
G1 F1200 X149.437 Y160.185 E10.8616
G0 F6000 X149.879 Y160.062
G1 F1200 X137.935 Y148.117 E11.31556
G0 F6000 X138.084 Y147.701
G1 F1200 X150.306 Y159.922 E11.78005
G0 F6000 X150.701 Y159.752
G1 F1200 X138.233 Y147.284 E12.25391
G0 F6000 X138.416 Y146.902
G1 F1200 X151.095 Y159.581 E12.73579
G0 F6000 X151.48 Y159.4
G1 F1200 X138.609 Y146.528 E13.22498
G0 F6000 X138.801 Y146.155
G1 F1200 X151.832 Y159.186 E13.72023
G0 F6000 X152.184 Y158.973
G1 F1200 X139.024 Y145.812 E14.22041
G0 F6000 X139.257 Y145.48
G1 F1200 X152.532 Y158.755 E14.72494
G0 F6000 X152.843 Y158.5
G1 F1200 X139.49 Y145.147 E15.23243
G0 F6000 X139.746 Y144.837
G1 F1200 X153.155 Y158.246 E15.74205
G0 F6000 X153.467 Y157.993
G1 F1200 X140.019 Y144.544 E16.25317
G0 F6000 X140.291 Y144.251
G1 F1200 X153.745 Y157.705 E16.7645
G0 F6000 X154.018 Y157.412
G1 F1200 X140.577 Y143.971 E17.27534
G0 F6000 X140.89 Y143.718
G1 F1200 X154.291 Y157.119 E17.78465
G0 F6000 X154.539 Y156.802
G1 F1200 X141.202 Y143.465 E18.29154
G0 F6000 X141.515 Y143.212
G1 F1200 X154.773 Y156.47 E18.79542
G0 F6000 X155.006 Y156.138
G1 F1200 X141.864 Y142.995 E19.29491
G0 F6000 X142.216 Y142.781
G1 F1200 X155.222 Y155.788 E19.78923
G0 F6000 X155.415 Y155.415
G1 F1200 X142.567 Y142.567 E20.27753
G0 F6000 X142.956 Y142.39
G1 F1200 X155.608 Y155.043 E20.7584
G0 F6000 X155.789 Y154.657
G1 F1200 X143.35 Y142.218 E21.23116
G0 F6000 X143.744 Y142.047
G1 F1200 X155.937 Y154.24 E21.69456
G0 F6000 X156.085 Y153.822
G1 F1200 X144.183 Y141.92 E22.14691
G0 F6000 X144.624 Y141.796
G1 F1200 X156.213 Y153.384 E22.58734
G0 F6000 X156.31 Y152.916
G1 F1200 X145.067 Y141.673 E23.01464
G0 F6000 X145.564 Y141.604
G1 F1200 X156.407 Y152.447 E23.42673
G0 F6000 X156.461 Y151.936
G1 F1200 X146.062 Y141.536 E23.82198
G0 F6000 X146.586 Y141.494
G1 F1200 X156.497 Y151.406 E24.19867
G0 F6000 X156.515 Y150.858
G1 F1200 X147.151 Y141.494 E24.55456
G0 F6000 X147.726 Y141.504
G1 F1200 X156.473 Y150.25 E24.88698
G0 F6000 X156.422 Y149.634
G1 F1200 X148.38 Y141.592 E25.19262
G0 F6000 X149.06 Y141.706
G1 F1200 X156.274 Y148.92 E25.46679
G0 F6000 X156.081 Y148.162
G1 F1200 X149.846 Y141.926 E25.70378
G0 F6000 X150.755 Y142.269
G1 F1200 X155.769 Y147.283 E25.89434
G0 F6000 X156.182 Y147.137
G0 X155.571 Y145.925
G0 X155.178 Y146.127
G1 F1200 X151.917 Y142.866 E26.01828
G0 F6000 X152.302 Y142.235
;MESH:NONMESH
G0 F300 X152.302 Y142.235 Z0.32
G0 F6000 X154.67 Y144.728
G0 X155.466 Y145.852
G0 X156.098 Y147.082
G0 X156.541 Y148.337
G0 X156.818 Y149.716
G0 X156.907 Y150.993
G0 X156.811 Y152.363
G0 X156.528 Y153.71
G0 X156.061 Y154.995
G0 X155.469 Y156.139
G0 X154.661 Y157.281
G0 X153.737 Y158.261
G0 X152.655 Y159.132
G0 X151.58 Y159.788
G0 X150.295 Y160.342
G0 X149.552 Y160.548
G0 X146.363 Y161.218
;TIME_ELAPSED:57.420344
;LAYER:1
M106 S51
;TYPE:WALL-INNER
;MESH:marshmallow-ammo.stl
G1 F1350 X144.869 Y161.014 E26.0588
G1 X143.847 Y160.727 E26.08733
G1 X143.429 Y160.591 E26.09914
G1 X142.458 Y160.171 E26.12757
G1 X142.077 Y159.965 E26.13921
G1 X141.159 Y159.407 E26.16808
G1 X140.818 Y159.134 E26.17982
G1 X139.988 Y158.461 E26.20854
G1 X139.262 Y157.681 E26.23717
G1 X138.961 Y157.335 E26.2495
G1 X138.369 Y156.499 E26.27703
G1 X138.138 Y156.11 E26.28919
G1 X137.651 Y155.17 E26.31764
G1 X137.495 Y154.753 E26.3296
G1 X137.141 Y153.761 E26.35791
G1 X136.92 Y152.7 E26.38703
G1 X136.843 Y152.272 E26.39872
G1 X136.771 Y151.22 E26.42706
G1 X136.772 Y150.779 E26.43891
G1 X136.843 Y149.721 E26.46741
G1 X136.921 Y149.299 E26.47894
G1 X137.141 Y148.24 E26.50801
G1 X137.496 Y147.243 E26.53645
G1 X137.65 Y146.832 E26.54824
G1 X138.132 Y145.9 E26.57644
G1 X138.373 Y145.498 E26.58904
G1 X138.966 Y144.655 E26.61674
G1 X139.256 Y144.325 E26.62854
G1 X139.988 Y143.539 E26.65741
G1 X140.816 Y142.868 E26.68605
G1 X141.173 Y142.584 E26.69831
G1 X142.056 Y142.045 E26.72611
G1 X142.452 Y141.832 E26.73819
G1 X143.417 Y141.413 E26.76647
G1 X143.859 Y141.27 E26.77895
G1 X144.868 Y140.986 E26.80712
G1 X145.921 Y140.843 E26.83568
G1 X146.374 Y140.783 E26.84796
G1 X147.394 Y140.782 E26.87537
G1 X147.888 Y140.806 E26.88866
G1 X148.892 Y140.942 E26.91589
G1 X149.357 Y141.049 E26.92871
G1 X150.357 Y141.329 E26.95662
G1 X151.748 Y141.929 E26.99733
G1 X152.652 Y142.48 E27.02578
G1 X153.028 Y142.728 E27.03789
G1 X153.839 Y143.388 E27.06599
G1 X154.157 Y143.692 E27.07781
G1 X154.878 Y144.463 E27.10618
G1 X155.14 Y144.824 E27.11817
G1 X155.758 Y145.699 E27.14696
G1 X156.248 Y146.641 E27.17549
G1 X156.437 Y147.038 E27.18731
G1 X156.788 Y148.021 E27.21536
G1 X156.907 Y148.453 E27.2274
G1 X157.127 Y149.505 E27.25629
G1 X157.164 Y149.937 E27.26794
G1 X157.238 Y151 E27.29657
G1 X157.168 Y152.05 E27.32485
G1 X157.127 Y152.492 E27.33678
G1 X156.91 Y153.541 E27.36557
G1 X156.79 Y153.972 E27.37759
G1 X156.44 Y154.957 E27.40569
G1 X156.252 Y155.347 E27.41732
G1 X155.759 Y156.298 E27.44611
G1 X155.146 Y157.169 E27.47473
G1 X154.876 Y157.539 E27.48704
G1 X154.175 Y158.29 E27.51465
G1 X153.839 Y158.612 E27.52716
